X:8
T:Funerl March (A). WHG.008
T:Funeral March (A). WHG.008
R:march
S:W.H.Giles MS,Bampton,Oxfordshire,1839p8
O:England
H:donated by Mrs W.R.Kettlewell to VWML,Apr 1927.
A:Bampton, Oxfordshire
N:MS has the title as A Funerl March.
Z:PJHeadford – VMP 2009
M:C
L:1/4
Q:1/4=180
K:G
|:G>A|B4 B4|(d2c2) (B2A2)|G4 A4{G/A/}|B6 B2|
(c4 B4)|A6 G2|F4 TE4|D6:|
|:B2|B4 B3A|G6 F2|(E2F2) (G2A2)|B6 B2|
“p”B4 “p”B4|(A2B2) (c2A2)|G4 F4{E/F/}|G6:|

